X: 12
T: Rose In The Heather, The
Z: chansherly212
S: https://thesession.org/tunes/447#setting53997
R: jig
M: 6/8
L: 1/8
K: Dmaj
|:"D"~F3 "A"EFE|"D"DFA BAF|"D"A (3Bcd "G"ede|"Bm"fdB "A"AFE|
"D"~F3"A"EFE|"D"DFA BAF|"G"AdB AFE|"A"FDD "D"D3:|
|:"D"fdB ABd|"D"f2a afd|"Em"fge fed|"A"Bcd efg|
"D"fdB ABd|"D"f2a afa|"G"bag fge|"A"edc "D"d3:|

